!!!!SEGMENT:pl-kk--kk-i-40--004-002_lasso-rudolph-di-missa-et-in-terra.krn
!!!id: 16xx:1290
!!!COM: Lasso, Rudolph di
!!!OTL: Missa – Et in terra
!!!PDT:
!!!SMS-siglum: PL-Kk
!!!SMS-shelfmark: Kk.I.40
!!!NIFC-rismID: 1001154490
!!!URL-scan: http://repozytorium.nifc.pl/skany/pl-kk-nut--i-40
!!!ONB-nifc: UWAGA: części Mszy: 1. Kyrie, 2. Et in terra, 3. Sanctus, 4. Agnus Dei. Skan 0007-0008
!!!SMS-variant:
!!!SMS-altvar:
**kern	**text
*I"Baſso Ripieno.	*
*I'B rip	*
*clefF4	*
*k[b-]	*
*M2/1	*
*met(c|)	*
=1-	=1-
!LO:TX:t=P:problem:oddech/cezura na różnej wysokości:global	!
!LO:TX:t=P:problem:znaki: BB- pod B-	!
0r	.
=2-	=2-
!LO:TX:t=P:problem:kreska pseudotaktowa	!
1r	.
*2\right	*
2.G\	Et
4G\	in
=3-	=3-
2D\	ter-
!LO:TX:t=P:problem:kreska pseudotaktowa	!
2AA/	-ra
2BB-/	.
2GG/	pax
=4-	=4-
4GG/	ho-
4AA/	.
4BB-/	-mi-
4C/	.
2D\	.
!LO:TX:t=P:problem:kreska pseudotaktowa	!
2E-X\	-ni-
=5-	=5-
!LO:TX:t=P:problem:kreska pseudotaktowa	!
1D	-bus
2r	.
2G\	ho-
=6-	=6-
2F#X\	-mi-
2G\	-ni-
!LO:TX:t=P:problem:kreska pseudotaktowa	!
0D,	-bus
=7-	=7-
.	.
0r	.
=8-	=8-
.	.
2.D\	bo-
4Eny\	.
=9-	=9-
2Fny\	-nae
!LO:TX:t=P:problem:kreska pseudotaktowa	!
2E\	.
2D/	vo-
2C/	-lun-
=10-	=10-
1BB-	-ta-
!LO:TX:t=P:problem:kreska pseudotaktowa	!
1AA	-tis
=11-	=11-
1r	.
1D	Lau-
=12-	=12-
2BBn/	-da-
2C/	-m(us)
*lig	*
1GG	Te
=13-	=13-
!LO:TX:t=P:problem:kreska pseudotaktowa	!
1D	.
*Xlig	*
!LO:TX:t=P:problem:kreska pseudotaktowa	!
00r	.
=14-	=14-
.	.
=15-	=15-
.	.
!LO:LB:g=original	!
2.A\	a-
4AA/	-do-
=16-	=16-
2.D/	-ra-
!LO:TX:t=P:problem:kreska pseudotaktowa	!
4C/	-m(us)
4BB-y/	a-
4C/	.
4D/	-do-
4E/	.
=17-	=17-
2F\	-ra-
2G\	-m(us)
!LO:TX:t=P:problem:kreska pseudotaktowa	!
1D	Te.
=18-	=18-
2r	.
2A\	glo-
2G\	-ri-
!LO:TX:t=P:problem:kreska pseudotaktowa	!
2F#X\	-fi-
=19-	=19-
2G\	-ca-
2D\	-m(us)
2G,\	Te
!LO:TX:t=P:problem:kreska pseudotaktowa	!
2D/	glo-
=20-	=20-
2C/	-ri-
2BBn/	-fi-
2C/	-ca-
2GG/	-m(us)
=21-	=21-
!LO:TX:t=P:problem:kreska pseudotaktowa	!
1C	Te.
2r	.
2.D\	Gra-
=22-	=22-
.	.
4D\	-ti-
!LO:TX:t=P:problem:kreska pseudotaktowa	!
2G\	-as
4G\	a-
4G\	-gi-
2C/	-m(us)
=23-	=23-
1D	Ti-
2.C/	.
8BB-y/L	.
8AA/J	.
=24-	=24-
!LO:TX:t=P:problem:kreska pseudotaktowa	!
1GG	-bi
!LO:PB:g=original	!
!LO:TX:t=P:problem:kreska pseudotaktowa	!
1r	.
=25-	=25-
2.D/	prop-
!LO:TX:t=P:problem:kreska pseudotaktowa	!
4D/	-ter
2D/	mag-
!LO:TX:t=P:problem:kreska pseudotaktowa	!
2BB-/	-na(m)
=26-	=26-
2.Fny\	glo-
4F\	-(ri)-
!LO:TX:t=P:problem:kreska pseudotaktowa	!
1F	-am
=27-	=27-
2.BB-/	glo-
!LO:TX:t=P:problem:kreska pseudotaktowa	!
4AA/	-ri-
4GG/	-am
(<4AA/	.
4BB-/)	.
4C/	.
=28-	=28-
1D	Tu-
!LO:TX:t=P:problem:kreska pseudotaktowa	!
0GG,	-am
=29-	=29-
.	.
0r	.
=30-	=30-
.	.
!LO:TX:t=P:problem:kreska pseudotaktowa	!
!LO:N:vis=1	!
1r	.
=31-	=31-
2G\	Do-
4G\	-mi-
!LO:TX:t=P:problem:kreska pseudotaktowa	!
4G\	-ne
2D\	De-
!LO:TX:t=P:problem:kreska pseudotaktowa	!
2D\	-us
=32-	=32-
2F\	Rex
2D\	cae-
1E-X	-leſ-
=33-	=33-
!LO:TX:t=P:problem:kreska pseudotaktowa	!
1D,	-tis
1r	.
=34-	=34-
2.G\	De-
!LO:TX:t=P:problem:kreska pseudotaktowa	!
4G\	-us
2G\	Pa-
!LO:TX:t=P:problem:kreska pseudotaktowa	!
2D\	-ter
=35-	=35-
2.G\	o-
4Eny\	.
1D	.
=36-	=36-
2C#X/	-mni-
!LO:TX:t=P:problem:kreska pseudotaktowa	!
2D/	-po-
!LO:LB:g=original	!
2AA,/	-tens
!LO:TX:t=P:problem:kreska pseudotaktowa	!
2A\	O-
=37-	=37-
2.B-\	.
4A\	.
2G\	-mni-
2F#X\	-po-
=38-	=38-
*lig	*
1G	-tens.
!LO:TX:t=P:problem:kreska pseudotaktowa	!
1D,	.
*Xlig	*
=39-	=39-
2r	.
2G\	Do-
2Fn\	-mi-
!LO:TX:t=P:problem:kreska pseudotaktowa	!
2D\	-ne
=40-	=40-
2.F\	Fi-
4E\	.
2D/	-li
!LO:TX:t=P:problem:kreska pseudotaktowa	!
2Cny,/	.
=41-	=41-
2.D/	U-
8C/L	.
8BB-/J	.
2AA/	.
2AA/	-ni-
=42-	=42-
2D\	-ge-
2GG/	-ni-
!LO:TX:t=P:problem:kreska pseudotaktowa	!
1AA,	-te
=43-	=43-
1r	.
1D	Je-
=44-	=44-
!LO:TX:t=P:problem:kreska pseudotaktowa	!
1BB-	-su
1F	(Chris)-
=45-	=45-
!LO:TX:t=P:problem:kreska pseudotaktowa	!
1BB-,	-te
1r	.
=46-	=46-
2.B-\	Do-
4BB-/	-mi-
!LO:TX:t=P:problem:kreska pseudotaktowa	!
1BB-	-ne
=47-	=47-
2C/	DE-
2D/	-(us)
2E-X\	a-
2E-,\	-gn(us)
=48-	=48-
1D	De-
!LO:TX:t=P:problem:kreska pseudotaktowa	!
1D	-i
!LO:LB:g=original	!
=49-	=49-
1G	Fi-
2F#X\	-li-
!LO:TX:t=P:problem:kreska pseudotaktowa	!
2G\	-us
=50-	=50-
4D/	Pa-
4C/	.
4BB-/	.
4AA/	.
1GG	.
=51-	=51-
!LO:TX:t=P:problem:podwójna kreska pseudotaktowa	!
0D;>	-tris
=52||-	=52||-
*M2/1	*
*met(c|)	*
!LO:N:vis=00	!
00r	.
=53-	=53-
.	.
=54-	=54-
!LO:TX:t=P:problem:kreska pseudotaktowa	!
1r	.
1GG	Qui
=55-	=55-
2.BB-/	tol-
!LO:TX:t=P:problem:kreska pseudotaktowa	!
4C/	.
4D/	.
4Eny/	.
1Fny\	.
=56-	=56-
.	.
!LO:TX:t=P:problem:kreska pseudotaktowa	!
2F\	-lis
2r	.
2BB-/	pec-
=57-	=57-
2C/	-ca-
!LO:TX:t=P:problem:kreska pseudotaktowa	!
2D/	-ta
1G	mun-
=58-	=58-
!LO:TX:t=P:problem:kreska pseudotaktowa	!
1D,	-di
2r	.
4G\	mi-
!LO:TX:t=P:problem:kreska pseudotaktowa	!
4G\	-ſe-
=59-	=59-
2F\	-re-
2D\	-re
2.F\	no-
4E\	.
=60-	=60-
2D/	.
2C/	.
!LO:TX:t=P:problem:kreska pseudotaktowa	!
1D,	-bis.
=61-	=61-
0r	.
=62-	=62-
!LO:TX:t=P:problem:kreska pseudotaktowa	!
1r	.
2r	.
2D\	Qui
=63-	=63-
1E-X	tol-
!LO:TX:t=P:problem:kreska pseudotaktowa	!
1D,	-lis
!LO:LB:g=original	!
=64-	=64-
2r	.
!LO:TX:t=P:problem:kreska pseudotaktowa	!
2C/	pec-
1G	-ca-
=65-	=65-
2C,/	-ta
*	*ij
2BB-/	pec-
2.F\	-ca-
!LO:TX:t=P:problem:kreska pseudotaktowa	!
4Eny\	.
=66-	=66-
2D/	-ta
*	*Xij
2C#X/	.
1D	mun-
=67-	=67-
!LO:TX:t=P:problem:kreska pseudotaktowa	!
1AA,	-di.
0r	.
=68-	=68-
.	.
!LO:TX:t=P:problem:kreska pseudotaktowa	!
!LO:N:vis=1	!
1r	.
=69-	=69-
2.D\	de-
4D\	-pre-
2F\	-ca-
!LO:TX:t=P:problem:kreska pseudotaktowa	!
2E\	-ti-
=70-	=70-
1.D	o-
!LO:TX:t=P:problem:kreska pseudotaktowa	!
2Cny/	-nem
=71-	=71-
1BB-	no-
!LO:TX:t=P:problem:kreska pseudotaktowa	!
1AA,	-stram
=72-	=72-
0r	.
=73-	=73-
1G	Qui
2.D/	se-
!LO:TX:t=P:problem:kreska pseudotaktowa	!
4C/	.
=74-	=74-
2.BB-/	.
8AA/L	.
!LO:TX:t=P:problem:kreska pseudotaktowa	!
8GG/J	.
1FF	.
=75-	=75-
2BB-,/	-des
!LO:TX:t=P:problem:kreska pseudotaktowa	!
2D/	ad
2BB-/	dex-
2C/	-te-
=76-	=76-
!LO:TX:t=P:problem:kreska pseudotaktowa	!
1D,	-ram
1r	.
=77-	=77-
2r	.
!LO:TX:t=P:problem:kreska pseudotaktowa	!
2D\	ad
!LO:LB:g=original	!
2BB-/	dex-
!LO:TX:t=P:problem:kreska pseudotaktowa	!
2C/	-te-
=78-	=78-
2D,/	-ram
2.D/	Pa-
4C/	.
4BB-/	.
!LO:TX:t=P:problem:kreska pseudotaktowa	!
4C/	.
=79-	=79-
1AA	.
!LO:TX:t=P:problem:kreska pseudotaktowa	!
1GG,	-tris
=80-	=80-
2.D\	mi-
4D\	-ſe-
2G\	-re-
!LO:TX:t=P:problem:kreska pseudotaktowa	!
2F#X\	-re
=81-	=81-
1G	no-
!LO:TX:t=P:problem:kreska pseudotaktowa	!
0A,	-bis.
=82-	=82-
.	.
00r	.
=83-	=83-
.	.
=84-	=84-
.	.
2r	.
2D\	Tu
=85-	=85-
1En	so-
!LO:TX:t=P:problem:kreska pseudotaktowa	!
1Fny,	-lus.
=86-	=86-
2r	.
2BB-/	al-
2.B-\	-tiſ-
8A\L	.
8G\J	.
=87-	=87-
2F\	.
2F\	-si-
!LO:TX:t=P:problem:kreska pseudotaktowa	!
1BB-,	-m(us)
=88-	=88-
2.F\	Je-
4E\	.
(<4D/	.
4C/	.
4BB-/)	.
4AA/	.
=89-	=89-
2GG/	.
!LO:TX:t=P:problem:kreska pseudotaktowa	!
2D\	-su
1G	(Chris)-
=90-	=90-
!LO:TX:t=P:problem:kreska pseudotaktowa	!
1D	-te
!LO:LB:g=original	!
!LO:TX:t=P:problem:kreska pseudotaktowa	!
1r	.
=91-	=91-
2r	.
2D/	Cum
2BB-/	S(an)-
!LO:TX:t=P:problem:kreska pseudotaktowa	!
2C/	-cto
=92-	=92-
2D\	Spi-
2E-X\	-ri-
!LO:TX:t=P:problem:kreska pseudotaktowa	!
1D,	-tu
=93-	=93-
2D\	in
4D\	glo-
4D\	-ri-
2G\	-a
4C/	De-
!LO:TX:t=P:problem:kreska pseudotaktowa	!
4C/	-i
=94-	=94-
2F\	Pa-
!LO:TX:t=P:problem:kreska pseudotaktowa	!
2D\	-tris
1G	a-
=95-	=95-
!LO:TX:t=P:problem:kreska pseudotaktowa	!
1F,	-men
0r	.
=96-	=96-
.	.
2D\	in
4D\	glo-
!LO:TX:t=P:problem:kreska pseudotaktowa	!
4D\	-ri-
=97-	=97-
2E-X\	-a
4C/	De-
!LO:TX:t=P:problem:kreska pseudotaktowa	!
4C/	-i
2D/	Pa-
!LO:TX:t=P:problem:kreska pseudotaktowa	!
2BB-/	-tris
=98-	=98-
4C/	a-
4D/	.
2E-X,\	-men
!LO:TX:t=P:problem:kreska pseudotaktowa	!
1D	in
=99-	=99-
2GG/	glo-
4GG/	-(ri)-
4GG/	-a
2C/	De-
!LO:TX:t=P:problem:kreska pseudotaktowa	!
2BBn/	-i
=100-	=100-
2C/	Pa-
2G,\	-tris
1C	a-
=101-	=101-
0GG;>	-men
==	==
*-	*-
!!!RDF**kern: > = above
!!!RDF**kern: < = below
!!!ENC: Tomasz Grochalski
!!!END: 2021-07-04
!!!EED: Antoni Szymański
!!!EST: 2021-07-31
